X:574
T:Sailor's Jacket, The
C:Joe Buchanan's Scottish Tome - Page 155.3
I:155 3
Z:Carl Allison
R:Reel
L:1/8
Q:1/4=120
M:4/4
K:D
dfec A2 AB | cdef gfge | dfec AB | cBcG ED D2 |
d2 (fd) adfd | c2 (ec) gcec | d2 (fd) adfd | eaag ed d2 |
defg afge | cdef g2 fg | ((3agf) ((3gfe) fded | ca{b}ag ed d2 |]

